src/icons/solid/symbols/zoom-out.svg

<svg width="24" height="24" viewBox="0 0 24 24" fill="none" xmlns="http://www.w3.org/2000/svg">
<g clip-path="url(#clip0_5735_1182)">
<path d="M14.5048 11.3119C14.3333 11.4832 14.1007 11.5794 13.8581 11.5794H7.45653C7.21399 11.5794 6.98138 11.4832 6.80987 11.3119C6.63837 11.1405 6.54202 10.9082 6.54202 10.6659C6.54202 10.4236 6.63837 10.1913 6.80987 10.0199C6.98138 9.84862 7.21399 9.75237 7.45653 9.75237H13.8581C14.1007 9.75237 14.3333 9.84862 14.5048 10.0199C14.6763 10.1913 14.7727 10.4236 14.7727 10.6659C14.7727 10.9082 14.6763 11.1405 14.5048 11.3119Z" fill="#3C3B44"/>
<path fill-rule="evenodd" clip-rule="evenodd" d="M18.6135 16.0374L22.4636 19.8834C22.6336 20.0531 22.7685 20.2546 22.8606 20.4764C22.9526 20.6982 23 20.936 23 21.1761C23 21.4162 22.9526 21.6539 22.8606 21.8757C22.7685 22.0975 22.6336 22.299 22.4636 22.4687C22.1209 22.809 21.6573 23 21.1741 23C20.6909 23 20.2273 22.809 19.8846 22.4687L16.0254 18.6136C14.0371 19.9519 11.6208 20.5021 9.24836 20.1565C6.87588 19.811 4.71746 18.5946 3.19448 16.7449C1.67151 14.8952 0.893301 12.5449 1.01179 10.1528C1.13027 7.76073 2.13694 5.49864 3.83528 3.80813C5.53361 2.11761 7.80169 1.12004 10.1967 1.01015C12.5918 0.900259 14.9419 1.68594 16.7882 3.21382C18.6345 4.7417 19.8445 6.90208 20.182 9.27322C20.5195 11.6444 19.9603 14.056 18.6135 16.0374ZM14.9758 4.2095C13.6975 3.35627 12.1946 2.90086 10.6572 2.90086C8.59629 2.90327 6.6205 3.72215 5.16323 5.17785C3.70597 6.63355 2.88621 8.60721 2.88379 10.6659C2.88379 12.2017 3.33969 13.7029 4.19384 14.9799C5.04799 16.2568 6.26203 17.2521 7.68243 17.8398C9.10283 18.4275 10.6658 18.5813 12.1737 18.2817C13.6816 17.9821 15.0667 17.2425 16.1538 16.1566C17.2409 15.0706 17.9813 13.687 18.2812 12.1808C18.5811 10.6745 18.4272 9.1132 17.8388 7.69433C17.2505 6.27546 16.2542 5.06273 14.9758 4.2095Z" fill="#3C3B44"/>
</g>
<defs>
<clipPath id="clip0_5735_1182">
<rect width="24" height="24" fill="white"/>
</clipPath>
</defs>
</svg>

<svg xmlns="http://www.w3.org/2000/svg" width="24" height="24" fill="none" viewBox="0 0 24 24"><g fill="currentColor" clip-path="url(#a)"><path d="M14.505 11.312a.92.92 0 0 1-.647.267H7.457a.915.915 0 0 1-.647-1.56.92.92 0 0 1 .647-.267h6.401a.915.915 0 0 1 .647 1.56"/><path fill-rule="evenodd" d="m18.614 16.037 3.85 3.846a1.83 1.83 0 0 1 0 2.586 1.83 1.83 0 0 1-2.58 0l-3.859-3.855a9.647 9.647 0 0 1-12.83-1.87 9.62 9.62 0 0 1 .64-12.936 9.644 9.644 0 0 1 16.347 5.465 9.62 9.62 0 0 1-1.569 6.764M14.975 4.21a7.8 7.8 0 0 0-4.319-1.31 7.8 7.8 0 0 0-5.494 2.278 7.77 7.77 0 0 0-2.28 5.488 7.76 7.76 0 0 0 4.8 7.174 7.78 7.78 0 0 0 8.47-1.683 7.76 7.76 0 0 0 1.686-8.463 7.77 7.77 0 0 0-2.863-3.484" clip-rule="evenodd"/></g><defs><clipPath id="a"><path fill="currentColor" d="M0 0h24v24H0z"/></clipPath></defs></svg>
